!!!COM: Charles Gounod
!!!CNT: Francais
!!!TXO: Francais
!!!OTL: Absence
!!!LYR: Alexandre-Joseph de Se/gur
!!!ENC: Jacob Pegg
!!!YOR: Romantic French Song 1830-1870 -David Tunley, ed.,
!!!YOR: New York: Garland Publishing, Inc., 1995, Vol. 5
!!!ODT: 1870/
!!NB: Vocal melody and text only encoded.
!!NB: First instance of melodic material only encoded.
**kern	**silbe
*clef G2	*
*k[b-]	*
*M3/4	*
*MM[andante]	*
!!created: 6/16/03 20:38
!!proofed and posted: 7/21/03 23:11
!!edit time: 53 min.
=3	=3
{8e	{De
8e	mon
8f	coeur
8f	u-
8g	-ne
8g	par-
=4	=4
4e	-ti-
2a}	-e}
=5	=5
{8f	{Vient
8f	au
8g	loin
8g	de
8.b-	s'en-
16b-	-vo-
=6	=6
[2a	-ler,
8a]}	|}
8r	.
!!7-8 repeat of 3-4
=9	=9
{8d	{Rien
8d	ne
8e	peut
8e	me
8.f	con-
16f	-so-
=10	=10
[4d	-ler!
8d]}	|}
8r	.
{4a	{Ce
=11	=11
8a	qui
8cc	met-
4cc	-tait
8b-	l'al-
8dd-	-le/-
=12	=12
4cc	-gres-
8c}	-se}
8r	.
{8ee-	{Dans
8dd-	mon
=13	=13
[4cc	a^-
8cc]	|
8a	-me et
8cc	dans
8b-	mes
=14	=14
[4a	yeux
8a]}	|}
8r	.
{8a	{M'a
8a	lais-
=15	=15
4a	-se/
4cc	dans
8a	la
8b-	tris-
=16	=16
4g	-tes-
8g}	-se}
8r	.
{4g	{En
=17	=17
8a	s'e-
8g	-loi-
4g	-gnant
8fn	de
8en	ces
=18	=18
[2a	lieux!
8a]}	|}
8r	.
!!19-20 repeat of 3-4
=21	=21
{8f	{Ne
8f	vien-
8g	-dront
8g	rou-
8b-	-vrir
8b-	mon
=22	=22
[2a	coeur,
8a]}	|}
8r	.
!!23-24 repeat - "Les sources serfont fermes"
=25	=25
{8d	{Ou\
8d	je
8e	pui-
8e	-sais
8.a	le
16a	bon-
=26	=26
*k[f#c#]	*
[2a	-heur!
8a]}	|}
8r	.
=27	=27
{8b-	{Je
8cc	re-
8ee	-fleu-
8dd	-ri-
[4dd	-rai
=28	=28
8dd]	|
8dd	quand
8cc	l'heu-
8b-	-re
8a	Du
8f	re-
=29	=29
[4a	-voir
8a]	|
8e	au-
8.g	-ra
16f	son-
=30	=30
[4f	-ne/
8f]}	|}
8r	.
{8.f	{Jus-
16f	-ques
=31	=31
*k[b-]	*
8.fn	la\
16fn	j'at-
[4fn	-tends
8fn]	|
8fn	et
=32	=32
4e	pleu-
8e}	-re}
8r	.
{8e	{Sous
8e	mon
=33	=33
[4e-	toit
8e-]	|
8e-	a-
8.e-	-ban-
16e-	-don-
=34	=34
[2.d	-ne/!
=35	=35
4d]}	|}
4r	.
{8a	{Sous
8a	mon
=36	=36
[2.a	toit
=37	=37
8a]}	|}
8r	.
{4a	{a-
8a	-ban-
8a	-don-
=38	=38
[2a	-ne/!
8a]}	|}
8r	.
*-	*-
